X: 60
T:Mazurka o' Gaston
M:3/4
L:1/8
S:Trio Patrick Bouffard
R:Mazurka
Z:Steve Mansfield
K:G
B>cd2d>B | A2B2c2 | d6 | B>cd2d>B | A2B2G2 | A6 :| d4B2 | c4A2 |
B2A2G2 | F2G2A2 | B2G2A2 | B2d3B | c>BA2G2 | A>FG4 ||
<end>
<start>
